X: 18231
T: Humours Of Kinvara, The
R: reel
M: 4/4
K: Dmajor
|:dc|BE (3EEE BEcE|BE (3EEE BcdB|cA (3AAA eAcA|ceef e2:|
|:de|f2 fe dcBA|effe d2 de|f2 fe fgaf|ecAc e2:|

